svg/twitch.svg

<svg xmlns="http://www.w3.org/2000/svg" viewBox="0 0 63 64" enable-background="new 0 0 63 64"><style type="text/css">.st0{fill:#343434;}</style><title>twitch</title><desc>Created with Sketch.</desc><path class="st0" d="M61.8 0h-56.2c-.5 0-.9.2-1.1.6l-4.3 7.4c-.1.2-.2.4-.2.6v45.5c0 .7.6 1.2 1.2 1.2h13.6v7.4c0 .7.5 1.2 1.2 1.2h8.6c.3 0 .6-.1.8-.3l9.3-8.3h11.5c.3 0 .6-.1.8-.3l15.4-14.2c.3-.2.4-.6.4-.9v-38.7c.2-.6-.4-1.2-1-1.2zm-6.8 36.3c0 .3-.1.6-.4.9l-7.9 8c-.2.2-.5.4-.9.4h-13.4l-6.9 7.1c-.2.2-.5.4-.9.4-.2 0-.3 0-.5-.1-.5-.2-.8-.6-.8-1.1v-6.2h-12.1c-.7 0-1.2-.6-1.2-1.2v-37.3c0-.6.5-1.2 1.2-1.2h42.6c.7 0 1.2.6 1.2 1.2v29.1zM25 16h6v18h-6zM37 16h6v18h-6z"/></svg>

<?xml version="1.0" encoding="utf-8"?>
<!-- Generator: Adobe Illustrator 21.0.0, SVG Export Plug-In . SVG Version: 6.00 Build 0)  -->
<svg version="1.1" id="Layer_1" xmlns="http://www.w3.org/2000/svg" xmlns:xlink="http://www.w3.org/1999/xlink" x="0px" y="0px"
	 viewBox="0 0 63 64" style="enable-background:new 0 0 63 64;" xml:space="preserve">
<style type="text/css">
	.st0{fill:#343434;}
</style>
<title>twitch</title>
<desc>Created with Sketch.</desc>
<g>
	<path class="st0" d="M61.8,0H5.6C5.1,0,4.7,0.2,4.5,0.6L0.2,8C0.1,8.2,0,8.4,0,8.6v45.5c0,0.7,0.6,1.2,1.2,1.2h13.6v7.4
		c0,0.7,0.5,1.2,1.2,1.2h8.6c0.3,0,0.6-0.1,0.8-0.3l9.3-8.3h11.5c0.3,0,0.6-0.1,0.8-0.3l15.4-14.2c0.3-0.2,0.4-0.6,0.4-0.9V1.2
		C63,0.6,62.4,0,61.8,0z M55,36.3c0,0.3-0.1,0.6-0.4,0.9l-7.9,8c-0.2,0.2-0.5,0.4-0.9,0.4H32.4l-6.9,7.1c-0.2,0.2-0.5,0.4-0.9,0.4
		c-0.2,0-0.3,0-0.5-0.1c-0.5-0.2-0.8-0.6-0.8-1.1v-6.2H11.2c-0.7,0-1.2-0.6-1.2-1.2V7.2C10,6.6,10.5,6,11.2,6h42.6
		C54.5,6,55,6.6,55,7.2V36.3z"/>
	<rect x="25" y="16" class="st0" width="6" height="18"/>
	<rect x="37" y="16" class="st0" width="6" height="18"/>
</g>
</svg>
